Papirus/24x24/panel/messenger-indicator.svg

<?xml version="1.0" encoding="UTF-8" standalone="no"?>
<svg xmlns:dc="http://purl.org/dc/elements/1.1/" xmlns:cc="http://creativecommons.org/ns#" xmlns:rdf="http://www.w3.org/1999/02/22-rdf-syntax-ns#" xmlns:svg="http://www.w3.org/2000/svg" xmlns="http://www.w3.org/2000/svg" id="svg2" viewBox="0 0 24 24" version="1.1" width="24" height="24">
    <metadata id="metadata51">
        <rdf:RDF>
            <cc:Work rdf:about="">
                <dc:format>
                    image/svg+xml
                </dc:format>
                <dc:type rdf:resource="http://purl.org/dc/dcmitype/StillImage"/>
                <dc:title/>
            </cc:Work>
        </rdf:RDF>
    </metadata>
    <path id="path4163" d="M 12.017578,4 C 8.1248215,4 4.8883398,6.5954036 4.1835938,10.027344 4.0634423,10.545177 4.0016182,11.07352 4,11.603516 c 0.00301,2.277538 1.1074093,4.428902 3,5.849609 L 7,21 9.3320312,18.667969 c 0.8506408,0.28219 1.7459058,0.434814 2.6503908,0.435547 3.834528,-0.0024 7.123954,-2.56687 7.835937,-6.107422 C 19.935165,12.490386 20,11.965932 20,11.427734 20,7.3250489 16.425632,4 12.017578,4 Z M 11,8 13,11.5 18,9 12,15 10.5,11.5 6,14 11,8 Z" style="opacity:1;fill:#ffffff;fill-opacity:1"/>
</svg>

<?xml version="1.0" encoding="UTF-8" standalone="no"?>
<svg id="svg2" xmlns:rdf="http://www.w3.org/1999/02/22-rdf-syntax-ns#" xmlns="http://www.w3.org/2000/svg" viewBox="0 0 24 24" width="24" version="1.1" xmlns:cc="http://creativecommons.org/ns#" height="24" xmlns:dc="http://purl.org/dc/elements/1.1/">
 <metadata id="metadata51">
  <rdf:RDF>
   <cc:Work rdf:about="">
    <dc:format>image/svg+xml</dc:format>
    <dc:type rdf:resource="http://purl.org/dc/dcmitype/StillImage"/>
    <dc:title/>
   </cc:Work>
  </rdf:RDF>
 </metadata>
 <path id="path4163" d="m12.018 4c-3.8932 0-7.1297 2.5954-7.8344 6.027-0.1202 0.518-0.182 1.047-0.1836 1.577 0.00301 2.2775 1.1074 4.4289 3 5.8496v3.546l2.332-2.332c0.85064 0.28219 1.7459 0.43481 2.6504 0.43555 3.8345-0.0024 7.124-2.5669 7.8359-6.1074 0.117-0.506 0.182-1.03 0.182-1.568 0-4.103-3.574-7.428-7.982-7.428zm-1.018 4 2 3.5 5-2.5-6 6-1.5-3.5-4.5 2.5 5-6z" fill="#fff"/>
</svg>
